; generated by PrusaSlicer 2.9.4 on 2026-04-24 at 12:41:01 UTC

; 

; external perimeters extrusion width = 0.45mm
; perimeters extrusion width = 0.45mm
; infill extrusion width = 0.45mm
; solid infill extrusion width = 0.45mm
; top infill extrusion width = 0.40mm
; first layer extrusion width = 0.70mm

M104 S200 ; set temperature
;TYPE:Custom
G28 ; home all axes
G1 Z5 F5000 ; lift nozzle
M109 S200 ; set temperature and wait for it to be reached
G21 ; set units to millimeters
G90 ; use absolute coordinates
M82 ; use absolute distances for extrusion
G92 E0
; Filament gcode
M107
;LAYER_CHANGE
;Z:0.35
;HEIGHT:0.35
G1 E-2 F2400
G92 E0
G1 Z.35 F7800
G1 X94.952 Y84.506
G1 E2 F2400
;TYPE:Skirt/Brim
;WIDTH:0.7
G1 F1800
G1 X96.017 Y83.638 E2.12493
G1 X97.151 Y82.994 E2.24351
G1 X98.425 Y82.519 E2.36714
G1 X100.013 Y82.201 E2.5144
G1 X101.593 Y82.119 E2.65826
G1 X103.528 Y82.254 E2.83464
G1 X105.35 Y82.668 E3.00454
G1 X106.402 Y83.082 E3.10734
G1 X107.165 Y83.497 E3.18632
G1 X108.159 Y84.236 E3.29895
G1 X109.218 Y85.388 E3.44124
G1 X110.106 Y86.919 E3.60218
G1 X110.487 Y87.92 E3.69957
G1 X110.729 Y88.821 E3.7844
G1 X110.916 Y90.497 E3.93774
G1 X111.074 Y109.329 E5.65019
G1 X110.946 Y110.823 E5.78654
G1 X110.625 Y112.142 E5.90998
G1 X110.209 Y113.254 E6.01794
G1 X109.646 Y114.314 E6.12708
G1 X109.01 Y115.185 E6.22515
G1 X108.431 Y115.789 E6.30123
G1 X107.661 Y116.415 E6.39146
G1 X106.536 Y117.08 E6.51029
G1 X105.285 Y117.568 E6.63239
G1 X103.941 Y117.859 E6.75743
G1 X102.262 Y118.018 E6.91078
G1 X99.922 Y117.821 E7.12431
G1 X98.276 Y117.435 E7.27804
G1 X97.152 Y116.975 E7.38847
G1 X96.421 Y116.573 E7.46433
G1 X95.204 Y115.663 E7.60251
G1 X94.104 Y114.436 E7.75235
G1 X93.304 Y113.041 E7.89857
G1 X92.696 Y111.167 E8.07772
G1 X92.496 Y109.395 E8.23987
G1 X92.462 Y90.366 E9.97017
G1 X92.607 Y88.875 E10.10639
G1 X92.811 Y88.053 E10.1834
G1 X93.266 Y86.881 E10.29772
G1 X94.081 Y85.509 E10.44283
G1 X94.912 Y84.551 E10.55815
G1 E8.55815 F2400
G92 E0
G92 E0
G1 X103.057 Y109.028 F7800
G1 E2 F2400
;TYPE:Perimeter
;WIDTH:0.7
G1 F1800
G1 X103.127 Y109.167 E2.01415
G1 X103.141 Y109.296 E2.02595
G1 X103.109 Y109.63 E2.05646
G1 X102.99 Y109.983 E2.09033
G1 X102.317 Y110.089 E2.15228
G1 X101.686 Y110.061 E2.20971
G1 X100.897 Y109.959 E2.28205
G1 X100.536 Y109.803 E2.31781
G1 X100.499 Y109.719 E2.32616
G1 X100.424 Y109.323 E2.36281
G1 X100.621 Y108.952 E2.40101
G1 X100.756 Y108.889 E2.41456
G1 X101.163 Y108.788 E2.45269
G1 X101.923 Y108.696 E2.5223
G1 X102.475 Y108.792 E2.57325
G1 X103.023 Y108.983 E2.62602
G1 X103.622 Y108.725 F7800
G1 F1800
G1 X103.639 Y108.745 E2.62841
G1 X103.747 Y109.095 E2.66172
G1 X103.779 Y109.367 E2.68662
G1 X103.688 Y109.893 E2.73516
G1 X103.465 Y110.43 E2.78803
G1 X103.239 Y110.557 E2.8116
G1 X102.719 Y110.662 E2.85984
G1 X102.165 Y110.723 E2.91052
G1 X101.621 Y110.682 E2.96013
G1 X100.934 Y110.599 E3.02305
G1 X100.397 Y110.446 E3.07382
G1 X100.058 Y110.219 E3.11092
G1 X99.908 Y109.926 E3.14085
G1 X99.787 Y109.397 E3.19019
G1 X99.897 Y108.93 E3.23382
G1 X100.165 Y108.503 E3.27966
G1 X100.584 Y108.279 E3.32286
G1 X101.067 Y108.171 E3.36786
G1 X101.821 Y108.075 E3.43697
G1 X102.304 Y108.125 E3.48112
G1 X102.939 Y108.271 E3.54037
G1 X103.439 Y108.501 E3.59041
G1 X103.584 Y108.678 E3.61122
G1 X104.172 Y108.428 F7800
;TYPE:External perimeter
G1 F1800
G1 X104.264 Y108.616 E3.63025
G1 X104.368 Y109.023 E3.66845
G1 X104.409 Y109.376 E3.70076
G1 X104.36 Y109.71 E3.73146
G1 X104.222 Y110.277 E3.78452
G1 X103.969 Y110.818 E3.83883
G1 X103.736 Y111.024 E3.86711
G1 X103.348 Y111.191 E3.90552
G1 X102.821 Y111.278 E3.95409
G1 X102.199 Y111.347 E4.011
G1 X101.555 Y111.304 E4.06969
G1 X100.827 Y111.215 E4.13638
G1 X100.277 Y111.066 E4.18819
G1 X99.775 Y110.805 E4.23964
G1 X99.533 Y110.562 E4.27082
G1 X99.316 Y110.133 E4.31454
G1 X99.179 Y109.619 E4.36291
G1 X99.179 Y109.215 E4.39965
G1 X99.327 Y108.661 E4.45179
G1 X99.637 Y108.17 E4.50459
G1 X99.853 Y107.932 E4.53382
G1 X100.37 Y107.689 E4.58576
G1 X100.971 Y107.554 E4.64177
G1 X101.792 Y107.451 E4.71701
G1 X102.196 Y107.474 E4.75381
G1 X102.805 Y107.586 E4.81011
G1 X103.446 Y107.804 E4.87167
G1 X103.846 Y108.021 E4.91305
G1 X104.117 Y108.316 E4.94947
G1 X104.145 Y108.374 E4.95533
G1 X104.29 Y108.747 F7800
G1 E2.95533 F2400
G92 E0
G1 X101.361 Y108.947 F7800
G1 E2 F2400
;TYPE:Solid infill
;WIDTH:0.765139
G1 F1800
G1 X102.315 Y109.901 E2.13547
G1 E.13547 F2400
G92 E0
G1 X102.792 Y90.809 F7800
G1 E2 F2400
;TYPE:Perimeter
;WIDTH:0.962914
G1 F1800
G1 X102.731 Y90.945 E2.01926
G1 X102.315 Y91.019 E2.07385
;WIDTH:0.97779
G1 X101.665 Y91.076 E2.15956
;WIDTH:0.982311
G1 X101.017 Y91.064 E2.24512
G1 X100.645 Y90.96 E2.29611
G1 X100.599 Y90.849 E2.31197
G1 X100.523 Y90.506 E2.35835
G1 X100.567 Y90.297 E2.38654
G1 X100.714 Y90.256 E2.40669
;WIDTH:0.982915
G1 X101.271 Y90.18 E2.48095
G1 X101.964 Y90.185 E2.5725
;WIDTH:0.962914
G1 X102.77 Y90.296 E2.67761
G1 X102.849 Y90.499 E2.70575
G1 X102.844 Y90.695 E2.73108
G1 X102.817 Y90.755 E2.73958
G1 X103.502 Y91.142 F7800
;WIDTH:0.7
G1 F1800
G1 X103.499 Y91.15 E2.74036
G1 X103.344 Y91.389 E2.76626
G1 X103.132 Y91.609 E2.79404
G1 X102.826 Y91.705 E2.8232
G1 X102.051 Y91.825 E2.89451
G1 X101.324 Y91.853 E2.96066
G1 X100.932 Y91.825 E2.9964
G1 X100.383 Y91.681 E3.04801
G1 X100.117 Y91.549 E3.07501
G1 X99.955 Y91.296 E3.10233
G1 X99.787 Y90.792 E3.15064
G1 X99.762 Y90.293 E3.19607
G1 X99.915 Y89.89 E3.23527
G1 X100.142 Y89.651 E3.26524
G1 X100.468 Y89.517 E3.29729
G1 X101.103 Y89.426 E3.35562
G1 X101.68 Y89.409 E3.40811
G1 X102.4 Y89.456 E3.47372
G1 X102.977 Y89.566 E3.52713
G1 X103.36 Y89.731 E3.56505
G1 X103.561 Y90.199 E3.61136
G1 X103.598 Y90.811 E3.66711
G1 X103.518 Y91.085 E3.69306
G1 X104.074 Y91.411 F7800
;TYPE:External perimeter
G1 F1800
G1 X104.074 Y91.413 E3.69324
G1 X103.775 Y91.873 E3.74313
G1 X103.484 Y92.132 E3.77855
G1 X102.961 Y92.316 E3.82896
G1 X102.111 Y92.448 E3.90718
G1 X101.198 Y92.484 E3.99026
G1 X100.701 Y92.428 E4.03574
G1 X100.205 Y92.28 E4.08281
G1 X99.733 Y92.049 E4.13059
G1 X99.528 Y91.811 E4.15915
G1 X99.274 Y91.286 E4.21218
G1 X99.158 Y90.793 E4.25823
G1 X99.14 Y90.193 E4.31281
G1 X99.312 Y89.696 E4.36063
G1 X99.563 Y89.317 E4.40196
G1 X99.794 Y89.128 E4.4291
G1 X100.322 Y88.907 E4.48115
G1 X101.134 Y88.79 E4.55575
G1 X101.696 Y88.784 E4.60686
G1 X102.479 Y88.835 E4.67821
G1 X103.147 Y88.962 E4.74004
G1 X103.616 Y89.139 E4.78562
G1 X103.852 Y89.346 E4.81416
G1 X104.098 Y89.867 E4.86655
G1 X104.234 Y90.33 E4.91043
G1 X104.221 Y90.907 E4.96291
G1 X104.091 Y91.353 E5.00515
G1 X103.887 Y91.697 F7800
;LAYER_CHANGE
;Z:0.65
;HEIGHT:0.3
G1 E3.00515 F2400
G92 E0
G1 Z.65 F7800
G1 X105.039 Y111.208
G1 E2 F2400
;TYPE:Overhang perimeter
;WIDTH:0.4
;HEIGHT:0.4
G1 F900
G1 X105.525 Y111.422 E2.02774
G1 X105.856 Y111.48 E2.0453
G1 X104.244 Y110.833 F7800
;TYPE:Perimeter
;WIDTH:0.45
;HEIGHT:0.3
G1 F900
G1 X103.769 Y111.08 E2.07105
G1 X103.378 Y111.218 E2.09099
G1 X102.605 Y111.285 E2.12831
G1 X102.055 Y111.277 E2.15477
G1 X101.365 Y111.216 E2.18809
G1 X100.789 Y111.121 E2.21617
G1 X100.199 Y110.949 E2.24573
G1 X99.761 Y110.698 E2.27001
G1 X99.439 Y110.386 E2.29157
G1 X99.249 Y110.079 E2.30893
G1 X99.073 Y109.507 E2.33771
G1 X99.103 Y108.915 E2.36622
G1 X99.242 Y108.496 E2.38745
G1 X99.484 Y108.039 E2.41232
G1 X99.678 Y107.799 E2.42716
G1 X100.039 Y107.598 E2.44703
G1 X100.604 Y107.421 E2.47551
G1 X101.356 Y107.314 E2.51204
G1 X101.922 Y107.286 E2.5393
G1 X102.425 Y107.323 E2.56356
G1 X103.18 Y107.462 E2.60048
G1 X103.686 Y107.628 E2.62609
G1 X104.058 Y107.82 E2.64622
G1 X104.519 Y108.184 E2.67447
G1 X104.498 Y108.55 E2.6921
G1 X104.54 Y109.15 E2.72103
G1 X104.729 Y109.589 E2.74402
G1 X104.486 Y109.865 E2.76171
G1 X104.277 Y110.341 E2.78671
G1 X104.284 Y110.798 E2.80869
G1 X104.826 Y111.071 F7800
;TYPE:Overhang perimeter
;WIDTH:0.4
;HEIGHT:0.4
G1 F900
G1 X105.039 Y111.208 E2.82192
G1 X104.754 Y111.083 E2.83818
G1 X104.493 Y111.138 E2.85212
G1 X104.375 Y111.199 E2.85906
;TYPE:Perimeter
;WIDTH:0.45
;HEIGHT:0.3
G1 X103.947 Y111.422 E2.88227
G1 X103.453 Y111.599 E2.90751
G1 X102.481 Y111.683 E2.95443
G1 X101.651 Y111.644 E2.99439
G1 X100.581 Y111.474 E3.0465
G1 X100.044 Y111.304 E3.07359
G1 X99.527 Y111.009 E3.10222
G1 X99.136 Y110.629 E3.12844
G1 X99.001 Y110.412 E3.14073
G1 X98.769 Y109.912 E3.16724
G1 X98.682 Y109.376 E3.19336
G1 X98.724 Y108.837 E3.21936
G1 X98.936 Y108.234 E3.2501
G1 X99.071 Y107.992 E3.26343
;TYPE:Overhang perimeter
;WIDTH:0.4
;HEIGHT:0.4
G1 X99.197 Y107.769 E3.27681
G1 X99.545 Y107.402 E3.30323
G1 X100.013 Y107.185 E3.33018
G1 X100.525 Y107.043 E3.35794
G1 X101.53 Y106.911 E3.4109
;TYPE:Perimeter
;WIDTH:0.45
;HEIGHT:0.3
G1 X102.031 Y106.906 E3.435
G1 X102.506 Y106.955 E3.45797
;TYPE:Overhang perimeter
;WIDTH:0.4
;HEIGHT:0.4
G1 X102.761 Y106.981 E3.47136
G1 X103.265 Y107.086 E3.49826
G1 X103.815 Y107.265 E3.52848
G1 X104.332 Y107.533 E3.5589
G1 X104.774 Y107.895 E3.58875
G1 X105.056 Y108.043 E3.60539
G1 X104.933 Y108.271 E3.61892
G1 X104.883 Y108.533 E3.63286
G1 X104.899 Y108.788 E3.64621
;TYPE:Perimeter
;WIDTH:0.45
;HEIGHT:0.3
G1 X104.916 Y109.065 E3.65956
G1 X104.957 Y109.152 E3.66419
;TYPE:Overhang perimeter
;WIDTH:0.4
;HEIGHT:0.4
G1 X105.111 Y109.472 E3.68274
G1 X105.355 Y109.657 E3.69874
G1 X105.085 Y109.789 E3.71444
G1 X104.885 Y109.977 E3.72878
;TYPE:Perimeter
;WIDTH:0.45
;HEIGHT:0.3
G1 X104.653 Y110.429 E3.75322
G1 X104.651 Y110.685 E3.76553
;WIDTH:0.457637
G1 X104.656 Y110.698 E3.76621
;TYPE:Overhang perimeter
;WIDTH:0.4
;HEIGHT:0.4
G1 X104.777 Y111.037 E3.78502
G1 E1.78502 F2400
G92 E0
G1 X106.493 Y109.747 F7800
G1 E2 F2400
G1 F900
G1 X106.11 Y109.722 E2.02005
G1 X105.994 Y107.834 F7800
G1 F900
G1 X106.135 Y107.834 E2.02742
G1 E.02742 F2400
G92 E0
G1 X105.106 Y110.844 F7800
G1 E2 F2400
G1 F900
G1 X105.286 Y110.956 E2.01108
G1 X105.767 Y111.031 E2.03651
G1 X106.208 Y111.128 E2.0601
G1 X106.419 Y111.298 E2.07426
G1 X106.5 Y111.493 E2.08529
G1 X106.447 Y111.682 E2.09555
G1 X106.317 Y111.794 E2.10451
G1 X106.027 Y111.887 E2.12042
G1 X105.673 Y111.9 E2.13893
G1 X105.393 Y111.821 E2.15413
G1 X104.758 Y111.458 E2.19234
G1 X104.671 Y111.48 E2.19703
G1 X104.125 Y111.765 E2.22921
G1 X103.529 Y111.979 E2.26229
G1 X102.489 Y112.07 E2.31683
G1 X101.615 Y112.029 E2.36254
G1 X100.989 Y111.942 E2.39556
G1 X100.487 Y111.849 E2.42223
G1 X99.888 Y111.66 E2.45505
G1 X99.293 Y111.32 E2.49085
G1 X98.833 Y110.873 E2.52436
G1 X98.674 Y110.615 E2.54019
G1 X98.469 Y110.202 E2.56428
G1 X98.305 Y109.607 E2.59652
G1 X98.289 Y109.195 E2.61806
G1 X98.411 Y108.53 E2.65338
G1 X98.641 Y107.949 E2.68603
G1 X98.946 Y107.463 E2.71601
G1 X99.332 Y107.076 E2.74457
G1 X99.879 Y106.822 E2.77608
G1 X100.446 Y106.664 E2.80683
G1 X101.247 Y106.55 E2.8491
G1 X101.817 Y106.517 E2.87893
G1 X102.425 Y106.544 E2.91073
G1 X102.924 Y106.614 E2.93706
G1 X103.495 Y106.742 E2.96763
G1 X104.123 Y106.965 E3.00245
G1 X104.65 Y107.273 E3.03434
G1 X105.028 Y107.605 E3.06062
G1 X105.242 Y107.711 E3.0731
G1 X105.409 Y107.72 E3.08184
G1 X105.864 Y107.508 E3.10807
G1 X106.184 Y107.488 E3.12482
G1 X106.435 Y107.57 E3.13862
G1 X106.565 Y107.74 E3.1498
G1 X106.54 Y107.9 E3.15826
G1 X106.361 Y108.113 E3.1728
G1 X106.144 Y108.18 E3.18467
G1 X105.51 Y108.167 E3.2178
G1 X105.285 Y108.428 E3.2358
G1 X105.287 Y108.945 E3.26281
G1 X105.381 Y109.184 E3.27623
G1 X105.676 Y109.435 E3.29647
G1 X106.094 Y109.351 E3.31874
G1 X106.546 Y109.403 E3.34251
G1 X106.821 Y109.508 E3.35789
G1 X107.023 Y109.674 E3.37155
G1 X107.069 Y109.812 E3.37915
G1 X106.982 Y109.929 E3.38677
G1 X106.623 Y110.071 E3.40694
G1 X106.158 Y110.094 E3.43126
G1 X105.655 Y109.956 E3.45851
G1 X105.455 Y110.011 E3.46935
G1 X105.189 Y110.211 E3.48674
G1 X105.028 Y110.517 E3.5048
G1 X105.083 Y110.792 E3.51945
G1 X105.442 Y110.97 F7800
G1 E1.51945 F2400
G92 E0
G1 X100.366 Y107.787 F7800
G1 E2 F2400
;TYPE:Solid infill
;WIDTH:0.45
;HEIGHT:0.3
G1 F1200
G1 X99.479 Y108.674 E2.06033
G1 X99.284 Y108.829 E2.07231
;WIDTH:0.404381
G1 X99.24 Y109.088 E2.08345
;WIDTH:0.45
G1 X99.356 Y109.342 E2.09688
G1 X101.049 Y107.649 E2.21204
G1 X101.66 Y107.584 E2.24159
G1 X99.448 Y109.796 E2.39205
G1 X99.635 Y110.154 E2.41148
G1 X102.197 Y107.592 E2.58574
G1 X102.683 Y107.651 E2.60929
G1 X99.902 Y110.433 E2.79848
G1 X100.241 Y110.64 E2.81758
G1 X103.132 Y107.748 E3.01426
G1 X103.542 Y107.884 E3.03504
G1 X100.64 Y110.785 E3.2324
G1 E1.2324 F2400
G92 E0
G1 X103.766 Y108.205 F7800
G1 E2 F2400
G1 F1200
G1 X101.097 Y110.874 E2.18154
G1 X101.714 Y110.972 E2.21159
G1 X102.468 Y111.007 E2.24789
G1 X103.322 Y110.933 E2.28912
G1 X103.758 Y110.76 E2.31168
G1 X103.986 Y110.641 E2.32405
G1 X103.994 Y110.307 E2.34012
G1 X104.224 Y109.745 E2.36933
G1 X104.383 Y109.529 E2.38223
G1 X104.236 Y109.081 E2.40491
G1 X104.208 Y108.512 E2.43231
G1 X104.233 Y108.318 E2.44172
G1 X103.902 Y108.069 E2.46164
G1 X103.831 Y108.686 E2.49151
G1 X103.851 Y109.099 E2.5114
G1 X103.948 Y109.451 E2.52896
G1 X103.867 Y109.599 E2.53707
G1 X103.637 Y110.161 E2.56628
G1 X103.58 Y110.418 E2.57894
G1 X103.246 Y110.552 E2.59625
G1 X102.46 Y110.621 E2.6342
G1 X101.921 Y110.595 E2.66015
G1 X103.694 Y108.822 E2.78075
G1 X103.564 Y109.437 E2.81098
;WIDTH:0.364743
G1 X103.274 Y110.184 E2.841
G1 X102.75 Y110.251 E2.86079
G1 X103.427 Y109.574 E2.89666
G1 E.89666 F2400
G92 E0
G1 X105.637 Y88.558 F7800
G1 E2 F2400
;TYPE:Overhang perimeter
;WIDTH:0.4
;HEIGHT:0.4
G1 F900
G1 X105.802 Y88.549 E2.00863
G1 E.00863 F2400
G92 E0
G1 X104.418 Y91.718 F7800
G1 E2 F2400
;TYPE:Perimeter
;WIDTH:0.45
;HEIGHT:0.3
G1 F900
G1 X104.422 Y91.803 E2.00409
G1 X104.006 Y92.16 E2.03046
G1 X103.505 Y92.452 E2.05835
G1 X102.881 Y92.617 E2.08939
G1 X102.025 Y92.697 E2.13074
G1 X101.224 Y92.663 E2.1693
G1 X100.455 Y92.516 E2.20696
G1 X99.854 Y92.299 E2.23769
G1 X99.577 Y92.094 E2.25426
G1 X99.269 Y91.596 E2.28242
G1 X99.068 Y91.016 E2.31194
G1 X99.054 Y90.529 E2.33537
G1 X99.209 Y89.953 E2.36406
G1 X99.492 Y89.525 E2.38874
G1 X99.809 Y89.261 E2.40858
G1 X100.259 Y89.014 E2.43327
G1 X100.997 Y88.828 E2.46988
G1 X101.554 Y88.764 E2.49685
G1 X102.099 Y88.748 E2.52307
G1 X102.716 Y88.786 E2.5528
G1 X103.238 Y88.861 E2.57816
G1 X103.594 Y88.958 E2.59591
G1 X104.156 Y89.213 E2.62559
G1 X104.149 Y89.469 E2.63791
G1 X104.206 Y89.721 E2.65034
G1 X104.359 Y90.058 E2.66814
G1 X104.698 Y90.402 E2.69137
G1 X104.463 Y90.878 E2.7169
G1 X104.393 Y91.249 E2.73506
G1 X104.415 Y91.658 E2.75476
G1 X104.797 Y91.606 F7800
;TYPE:Overhang perimeter
;WIDTH:0.4
;HEIGHT:0.4
G1 F900
G1 X104.798 Y91.635 E2.75628
G1 X104.991 Y91.928 E2.77461
G1 X104.673 Y92.095 E2.79338
G1 X104.127 Y92.564 E2.83098
G1 X103.645 Y92.814 E2.85935
G1 X102.949 Y92.998 E2.89696
G1 X102.034 Y93.084 E2.94497
G1 X101.179 Y93.047 E2.98968
G1 X101.085 Y93.029 E2.99468
;TYPE:Perimeter
;WIDTH:0.45
;HEIGHT:0.3
G1 X100.353 Y92.889 E3.03052
G1 X99.67 Y92.642 E3.06545
G1 X99.305 Y92.372 E3.08729
G1 X99.187 Y92.221 E3.09651
G1 X98.914 Y91.75 E3.12269
G1 X98.687 Y91.094 E3.15608
G1 X98.671 Y90.485 E3.18538
G1 X98.768 Y90.078 E3.2055
G1 X98.965 Y89.587 E3.23095
G1 X99.327 Y89.151 E3.25821
G1 X99.671 Y88.891 E3.27895
G1 X100.129 Y88.649 E3.30386
G1 X100.928 Y88.448 E3.34349
G1 X101.526 Y88.379 E3.37244
G1 X102.106 Y88.362 E3.40035
G1 X102.755 Y88.402 E3.43162
G1 X103.445 Y88.501 E3.46515
G1 X103.9 Y88.664 E3.4884
;TYPE:Overhang perimeter
;WIDTH:0.4
;HEIGHT:0.4
G1 X104.597 Y88.974 E3.52825
G1 X104.539 Y89.443 E3.55294
;TYPE:Perimeter
;WIDTH:0.45
;HEIGHT:0.3
G1 X104.638 Y89.777 E3.5697
G1 X104.676 Y89.817 E3.57235
;TYPE:Overhang perimeter
;WIDTH:0.4
;HEIGHT:0.4
G1 X105.007 Y90.16 E3.59725
G1 X105.256 Y90.268 E3.61143
G1 X105.58 Y90.302 E3.62845
G1 X105.379 Y90.354 E3.6393
G1 X105.154 Y90.484 E3.65288
G1 X104.917 Y90.774 E3.67245
G1 X104.786 Y91.179 E3.69469
G1 X104.796 Y91.546 E3.71387
G1 X106.145 Y90.252 F7800
G1 F900
G1 X105.58 Y90.302 E3.7435
G1 X105.879 Y92.132 F7800
G1 F900
G1 X106.097 Y92.141 E3.7549
G1 X105.163 Y91.498 F7800
G1 F900
G1 X105.163 Y91.509 E3.75547
G1 X105.322 Y91.723 E3.7694
G1 X105.479 Y91.794 E3.7784
G1 X106.164 Y91.768 E3.81421
G1 X106.348 Y91.85 E3.82473
G1 X106.513 Y92.043 E3.838
G1 X106.523 Y92.285 E3.85065
G1 X106.414 Y92.401 E3.85897
